svgs/1F91A.svg

<svg xmlns="http://www.w3.org/2000/svg" xmlns:xlink="http://www.w3.org/1999/xlink" preserveAspectRatio="none" viewBox="0 0 72 72"><defs><filter id="b" width="140%" height="140%" x="-20%" y="-20%" color-interpolation-filters="sRGB"><feColorMatrix in="SourceGraphic" result="result1" values="1 0 0 0 0 0 1 0 0 0 0 0 1 0 0 0 0 0 0.5 0"/></filter><filter id="g" width="140%" height="140%" x="-20%" y="-20%" color-interpolation-filters="sRGB"><feColorMatrix in="SourceGraphic" result="result1" values="1 0 0 0 0 0 1 0 0 0 0 0 1 0 0 0 0 0 0.3 0"/></filter><path id="a" fill="#FAC036" d="M88.8 16.1q.15-3.35-2.05-5.55-2.05-2.1-5.1-2.05-3 .05-4.7 2.4-1.45 2.15-1.55 5.5l-.45 38.1q0 1-.6 1.35l-.65.15q-1.4 0-1.4-1.7-.05-12.4.1-44.4-.05-3.45-2-5.7Q68.45 2 65.5 2t-5 2.5q-2.05 2.5-2.05 5.9l-.5 45.1q-.1 1.55-1.45 1.35-1.3-.15-1.3-1.7l.1-36.2q-.3-3.55-2.4-5.25-2-1.55-5-1.2-2.7.3-4.3 2.9-1.45 2.3-1.7 5.8-.05.75-.5 19.6-.45 19.05-.65 22.35l-.1 7.55q-.25 8.3-.7 11.85-.2 1.35-1.7 1.4-1.55 0-2-1.3l.3-21.1q-.1-5.55-2.3-8.35-2.55-3.3-7.7-2.65-2.35.3-4.25 2.8-2.35 3.15-2.25 8.2l-.1 12.4q.15 13.8 1.1 20.8l.85 3.65 2.75 5.8q3.6 6.6 8.15 10.6 6.65 5.75 12.7 7.55 1.4.45 4.3 1.35 2.6.85 4.5 1.2 5.05.95 9.7 1.1 2.8.1 5.05-.05l5-.35q5.5-.65 10.15-2.6 5.05-2.2 8.7-5.6 3.45-3.3 5.75-7.65 1.5-2.85 2.9-7.75 1.55-5.45 2.55-16.65l.75-10.1q.1-2.25.3-44.25-.5-7.6-6.6-7.9-3.3-.15-5.05 1.95-1.2 1.35-1.6 3.55-.2.9-.3 14.3l-.1 13.2q0 .4-.2.8-.35.8-1.25.8-.85 0-1.25-.7l-.2-.7.2-40.2z"/><path id="c" fill="#E48C15" d="M.75 2Q.25 3 0 4q.2.5.65 1Q1.6 6 3 6q1.4 0 2.35-1 .45-.5.65-1-.25-1-.75-2-1-2-2.25-2T.75 2z"/><path id="d" fill="#E48C15" d="M.75 2Q.25 3 0 4q.2.5.65 1Q1.6 6 3 6q1.4 0 2.35-1 .45-.5.65-1-.25-1-.75-2-1-2-2.25-2T.75 2z"/><path id="e" fill="#E48C15" d="M1 2.7Q.35 4 0 5.35.25 6 .9 6.7 2.15 8 4 8q1.9 0 3.15-1.3.6-.7.85-1.35Q7.7 4 7 2.7 5.7 0 4 0 2.35 0 1 2.7z"/><path id="f" fill="#E48C15" d="M.9 2.35Q.3 3.55 0 4.7q.25.6.8 1.15Q1.9 7 3.5 7q1.65 0 2.75-1.15Q6.8 5.3 7 4.7q-.3-1.15-.85-2.35Q4.95 0 3.5 0T.9 2.35z"/><path id="h" fill="#E48C15" d="M.75 1q-.5.5-.75 1 .75 1 3 1t3-1q-.25-.5-.75-1-1-1-2.25-1T.75 1z"/><path id="i" fill="#E48C15" d="M.75 1q-.5.5-.75 1 .75 1 3 1t3-1q-.25-.5-.75-1-1-1-2.25-1T.75 1z"/><path id="j" fill="#E48C15" d="M.75 1q-.5.5-.75 1 .75 1 3 1t3-1q-.25-.5-.75-1-1-1-2.25-1T.75 1z"/><path id="k" fill="#E48C15" d="M.75 1q-.5.5-.75 1 .75 1 3 1t3-1q-.25-.5-.75-1-1-1-2.25-1T.75 1z"/></defs><use transform="scale(.5625)" xlink:href="#a"/><use filter="url(#b)" transform="translate(25.3 34.3) scale(.5625)" xlink:href="#c"/><use filter="url(#b)" transform="translate(53.45 36) scale(.5625)" xlink:href="#d"/><use filter="url(#b)" transform="translate(34.3 32.6) scale(.5625)" xlink:href="#e"/><use filter="url(#b)" transform="translate(43.9 33.75) scale(.5625)" xlink:href="#f"/><use filter="url(#g)" transform="translate(54 24.15) scale(.5625)" xlink:href="#h"/><use filter="url(#g)" transform="translate(44.45 20.25) scale(.5625)" xlink:href="#i"/><use filter="url(#g)" transform="translate(34.9 19.65) scale(.5625)" xlink:href="#j"/><use filter="url(#g)" transform="translate(25.3 22.5) scale(.5625)" xlink:href="#k"/></svg>

<svg xmlns="http://www.w3.org/2000/svg" version="1.1" xmlns:xlink="http://www.w3.org/1999/xlink" preserveAspectRatio="none" x="0px" y="0px" width="72px" height="72px" viewBox="0 0 72 72">
<defs>
<filter id="Filter_1" x="-20%" y="-20%" width="140%" height="140%" color-interpolation-filters="sRGB">
<feColorMatrix in="SourceGraphic" type="matrix" values="1 0 0 0 0 0 1 0 0 0 0 0 1 0 0 0 0 0 0.5 0" result="result1"/>
</filter>

<filter id="Filter_2" x="-20%" y="-20%" width="140%" height="140%" color-interpolation-filters="sRGB">
<feColorMatrix in="SourceGraphic" type="matrix" values="1 0 0 0 0 0 1 0 0 0 0 0 1 0 0 0 0 0 0.3 0" result="result1"/>
</filter>

<g id="Layer0_0_FILL">
<path fill="#FAC036" stroke="none" d="
M 88.8 16.1
Q 88.95 12.75 86.75 10.55 84.7 8.45 81.65 8.5 78.65 8.55 76.95 10.9 75.5 13.05 75.4 16.4
L 74.95 54.5
Q 74.95 55.5 74.35 55.85
L 73.7 56
Q 72.3 56 72.3 54.3 72.25 41.9 72.4 9.9 72.35 6.45 70.4 4.2 68.45 2 65.5 2 62.55 2 60.5 4.5 58.45 7 58.45 10.4
L 57.95 55.5
Q 57.85 57.05 56.5 56.85 55.2 56.7 55.2 55.15
L 55.3 18.95
Q 55 15.4 52.9 13.7 50.9 12.15 47.9 12.5 45.2 12.8 43.6 15.4 42.15 17.7 41.9 21.2 41.85 21.95 41.4 40.8 40.95 59.85 40.75 63.15
L 40.65 70.7
Q 40.4 79 39.95 82.55 39.75 83.9 38.25 83.95 36.7 83.95 36.25 82.65
L 36.55 61.55
Q 36.45 56 34.25 53.2 31.7 49.9 26.55 50.55 24.2 50.85 22.3 53.35 19.95 56.5 20.05 61.55
L 19.95 73.95
Q 20.1 87.75 21.05 94.75
L 21.9 98.4 24.65 104.2
Q 28.25 110.8 32.8 114.8 39.45 120.55 45.5 122.35 46.9 122.8 49.8 123.7 52.4 124.55 54.3 124.9 59.35 125.85 64 126 66.8 126.1 69.05 125.95
L 74.05 125.6
Q 79.55 124.95 84.2 123 89.25 120.8 92.9 117.4 96.35 114.1 98.65 109.75 100.15 106.9 101.55 102 103.1 96.55 104.1 85.35
L 104.85 75.25
Q 104.95 73 105.15 31 104.65 23.4 98.55 23.1 95.25 22.95 93.5 25.05 92.3 26.4 91.9 28.6 91.7 29.5 91.6 42.9 91.55 49.6 91.5 56.1 91.5 56.5 91.3 56.9 90.95 57.7 90.05 57.7 89.2 57.7 88.8 57
L 88.6 56.3 88.8 16.1 Z"/>
</g>

<g id="An_1F91A_SVG_Layer_1__Path__7_0_Layer0_0_FILL">
<path fill="#E48C15" stroke="none" d="
M 0.75 2
Q 0.25 3 0 4 0.2 4.5 0.65 5 1.6 6 3 6 4.4 6 5.35 5 5.8 4.5 6 4 5.75 3 5.25 2 4.25 0 3 0 1.75 0 0.75 2 Z"/>
</g>

<g id="An_1F91A_SVG_Layer_1__Path__6_0_Layer0_0_FILL">
<path fill="#E48C15" stroke="none" d="
M 0.75 2
Q 0.25 3 0 4 0.2 4.5 0.65 5 1.6 6 3 6 4.4 6 5.35 5 5.8 4.5 6 4 5.75 3 5.25 2 4.25 0 3 0 1.75 0 0.75 2 Z"/>
</g>

<g id="An_1F91A_SVG_Layer_1__Path__5_0_Layer0_0_FILL">
<path fill="#E48C15" stroke="none" d="
M 1 2.7
Q 0.35 4 0 5.35 0.25 6 0.9 6.7 2.15 8 4 8 5.9 8 7.15 6.7 7.75 6 8 5.35 7.7 4 7 2.7 5.7 0 4 0 2.35 0 1 2.7 Z"/>
</g>

<g id="An_1F91A_SVG_Layer_1__Path__4_0_Layer0_0_FILL">
<path fill="#E48C15" stroke="none" d="
M 0.9 2.35
Q 0.3 3.55 0 4.7 0.25 5.3 0.8 5.85 1.9 7 3.5 7 5.15 7 6.25 5.85 6.8 5.3 7 4.7 6.7 3.55 6.15 2.35 4.95 0 3.5 0 2.05 0 0.9 2.35 Z"/>
</g>

<g id="An_1F91A_SVG_Layer_1__Path__3_0_Layer0_0_FILL">
<path fill="#E48C15" stroke="none" d="
M 0.75 1
Q 0.25 1.5 0 2 0.75 3 3 3 5.25 3 6 2 5.75 1.5 5.25 1 4.25 0 3 0 1.75 0 0.75 1 Z"/>
</g>

<g id="An_1F91A_SVG_Layer_1__Path__2_0_Layer0_0_FILL">
<path fill="#E48C15" stroke="none" d="
M 0.75 1
Q 0.25 1.5 0 2 0.75 3 3 3 5.25 3 6 2 5.75 1.5 5.25 1 4.25 0 3 0 1.75 0 0.75 1 Z"/>
</g>

<g id="An_1F91A_SVG_Layer_1__Path__1_0_Layer0_0_FILL">
<path fill="#E48C15" stroke="none" d="
M 0.75 1
Q 0.25 1.5 0 2 0.75 3 3 3 5.25 3 6 2 5.75 1.5 5.25 1 4.25 0 3 0 1.75 0 0.75 1 Z"/>
</g>

<g id="An_1F91A_SVG_Layer_1__Path__0_Layer0_0_FILL">
<path fill="#E48C15" stroke="none" d="
M 0.75 1
Q 0.25 1.5 0 2 0.75 3 3 3 5.25 3 6 2 5.75 1.5 5.25 1 4.25 0 3 0 1.75 0 0.75 1 Z"/>
</g>
</defs>

<g id="Layer_1">
<g transform="matrix( 0.5625, 0, 0, 0.5625, 0,0) ">
<use xlink:href="#Layer0_0_FILL"/>
</g>

<g transform="matrix( 0.5625, 0, 0, 0.5625, 25.3,34.3) ">
<g id="Camada_1">
<g transform="matrix( 1, 0, 0, 1, 0,0) ">
<use filter="url(#Filter_1)" xlink:href="#An_1F91A_SVG_Layer_1__Path__7_0_Layer0_0_FILL"/>
</g>
</g>
</g>

<g transform="matrix( 0.5625, 0, 0, 0.5625, 53.45,36) ">
<g transform="matrix( 1, 0, 0, 1, 0,0) ">
<use filter="url(#Filter_1)" xlink:href="#An_1F91A_SVG_Layer_1__Path__6_0_Layer0_0_FILL"/>
</g>
</g>

<g transform="matrix( 0.5625, 0, 0, 0.5625, 34.3,32.6) ">
<g transform="matrix( 1, 0, 0, 1, 0,0) ">
<use filter="url(#Filter_1)" xlink:href="#An_1F91A_SVG_Layer_1__Path__5_0_Layer0_0_FILL"/>
</g>
</g>

<g transform="matrix( 0.5625, 0, 0, 0.5625, 43.9,33.75) ">
<g transform="matrix( 1, 0, 0, 1, 0,0) ">
<use filter="url(#Filter_1)" xlink:href="#An_1F91A_SVG_Layer_1__Path__4_0_Layer0_0_FILL"/>
</g>
</g>

<g transform="matrix( 0.5625, 0, 0, 0.5625, 54,24.15) ">
<g transform="matrix( 1, 0, 0, 1, 0,0) ">
<use filter="url(#Filter_2)" xlink:href="#An_1F91A_SVG_Layer_1__Path__3_0_Layer0_0_FILL"/>
</g>
</g>

<g transform="matrix( 0.5625, 0, 0, 0.5625, 44.45,20.25) ">
<g transform="matrix( 1, 0, 0, 1, 0,0) ">
<use filter="url(#Filter_2)" xlink:href="#An_1F91A_SVG_Layer_1__Path__2_0_Layer0_0_FILL"/>
</g>
</g>

<g transform="matrix( 0.5625, 0, 0, 0.5625, 34.9,19.65) ">
<g transform="matrix( 1, 0, 0, 1, 0,0) ">
<use filter="url(#Filter_2)" xlink:href="#An_1F91A_SVG_Layer_1__Path__1_0_Layer0_0_FILL"/>
</g>
</g>

<g transform="matrix( 0.5625, 0, 0, 0.5625, 25.3,22.5) ">
<g transform="matrix( 1, 0, 0, 1, 0,0) ">
<use filter="url(#Filter_2)" xlink:href="#An_1F91A_SVG_Layer_1__Path__0_Layer0_0_FILL"/>
</g>
</g>
</g>
</svg>
